X: 12466
T: Farewell To Connaught
R: reel
M: 4/4
K: Dmixolydian
|:D2 (3FED FGAB|c2cd cA ~G2|Add^c d2 cd|ed^cd edcA|
D2 (3FED FGAB|c2 (3Bcd cA ~G2|ABAG EGAB|cAGE ED ~D2:|
|:eggf ~g2 ed|cded cA ~A2|eaag ~a3g|eaag edcd|
eggf ~g2 ed|cded dAAG|ABAG EGAB|cAGE ED ~D2:|

